Papirus/48x48/mimetypes/rpm.svg

<svg xmlns="http://www.w3.org/2000/svg" width="48" height="48" version="1">
 <rect style="opacity:0.2" width="40" height="40" x="-45" y="-44" rx="2" ry="2" transform="matrix(0,-1,-1,0,0,0)"/>
 <rect fill="#d2d2d2" width="40" height="40" x="-44" y="-44" rx="2" ry="2" transform="matrix(0,-1,-1,0,0,0)"/>
 <path fill="#fff" opacity=".2" d="m6 4c-1.108 0-2 0.892-2 2v1c0-1.108 0.892-2 2-2h36c1.108 0 2 0.892 2 2v-1c0-1.108-0.892-2-2-2h-36z"/>
 <path fill="#b19a61" d="m18 16v16h4v-6h6v-10h-10zm4 4h2v2h-2v-2z"/>
 <path fill="#b19a61" d="m7 16v16h4v-3.8086l2 3.809h4l-1.895-6h1.895v-10h-10zm4 4h2v2h-2v-2z"/>
 <path fill="#b19a61" d="m29 16v16h4v-7l2.5 3 2.5-3v7h4v-16h-4l-2.5 6-2.5-6z"/>
</svg>

<svg xmlns="http://www.w3.org/2000/svg" width="48" height="48" version="1">
 <rect style="opacity:0.2" width="40" height="40" x="-45" y="-44" rx="2" ry="2" transform="matrix(0,-1,-1,0,0,0)"/>
 <rect style="fill:#d2d2d2" width="40" height="40" x="-44" y="-44" rx="2" ry="2" transform="matrix(0,-1,-1,0,0,0)"/>
 <path style="opacity:0.2;fill:#ffffff" d="M 6,4 C 4.892,4 4,4.892 4,6 L 4,7 C 4,5.892 4.892,5 6,5 l 36,0 c 1.108,0 2,0.892 2,2 L 44,6 C 44,4.892 43.108,4 42,4 L 6,4 Z"/>
 <path style="fill:#987d3b" d="M 7 16 L 7 32 L 11 32 L 11 28.191406 L 13 32 L 17 32 L 15.105469 26 L 17 26 L 17 16 L 7 16 z M 18 16 L 18 32 L 22 32 L 22 26 L 28 26 L 28 16 L 18 16 z M 29 16 L 29 32 L 33 32 L 33 25 L 35.5 28 L 38 25 L 38 32 L 42 32 L 42 16 L 38 16 L 35.5 22 L 33 16 L 29 16 z M 11 20 L 13 20 L 13 22 L 11 22 L 11 20 z M 22 20 L 24 20 L 24 22 L 22 22 L 22 20 z"/>
</svg>
